X: 19608
T: January 16th
R: jig
M: 6/8
K: Dmajor
|F|DFA A2 B|AFA Bdd|edB A2 B|ABd FEE|FEF D2 A|
BAF Bdd efe d2 D|EDE D2:|g fef d2 g|fed faa|
fef d2 f|efe efg|fef d2 g|fed faa|bag fef|ded d2:|

